; generated by PrusaSlicer 2.7.4+win64 on 2024-05-16 at 08:02:43 UTC


;
;
; 

; external perimeters extrusion width = 0.60mm
; perimeters extrusion width = 0.50mm
; infill extrusion width = 0.50mm
; solid infill extrusion width = 0.50mm
; top infill extrusion width = 0.45mm
; support material extrusion width = 0.38mm
; first layer extrusion width = 0.42mm

; external perimeters extrusion width = 0.60mm
; perimeters extrusion width = 0.50mm
; infill extrusion width = 0.50mm
; solid infill extrusion width = 0.50mm
; top infill extrusion width = 0.45mm
; support material extrusion width = 0.38mm
; first layer extrusion width = 0.42mm

M73 P0 R47
M73 Q0 S48
M201 X1000 Y1000 Z200 E5000 ; sets maximum accelerations, mm/sec^2
M203 X200 Y200 Z12 E120 ; sets maximum feedrates, mm / sec
M204 S1250 T1250 ; sets acceleration (S) and retract acceleration (R), mm/sec^2
M205 X8.00 Y8.00 Z0.40 E4.50 ; sets the jerk limits, mm/sec
M205 S0 T0 ; sets the minimum extruding and travel feed rate, mm/sec

; printing object camara_mount_versie_1_v9 v4_1 id:0 copy 0
; stop printing object camara_mount_versie_1_v9 v4_1 id:0 copy 0
; printing object camara_mount_versie_1_v9 v4_2 id:1 copy 0
; stop printing object camara_mount_versie_1_v9 v4_2 id:1 copy 0
; printing object camara_mount_versie_1_v9 v4_2 id:1 copy 1
; stop printing object camara_mount_versie_1_v9 v4_2 id:1 copy 1

;TYPE:Custom
M862.3 P "MK3S" ; printer model check
M862.1 P0.4 ; nozzle diameter check
M115 U3.12.2 ; tell printer latest fw version
G90 ; use absolute coordinates
M83 ; extruder relative mode
M104 S215 ; set extruder temp
M140 S60 ; set bed temp
M190 S60 ; wait for bed temp
M109 S215 ; wait for extruder temp
G28 W ; home all without mesh bed level
G80 ; mesh bed leveling

G1 Z0.2 F720
G1 Y-3 F1000 ; go outside print area
G92 E0
G1 X60 E9 F1000 ; intro line
G1 X100 E12.5 F1000 ; intro line
M73 Q0 S47

G92 E0
M221 S95

; Don't change E values below. Excessive value can damage the printer.

M907 E538 ; set extruder motor current
G21 ; set units to millimeters
G90 ; use absolute coordinates
M83 ; use relative distances for extrusion
M900 K0.05 ; Filament gcode LA 1.5
M900 K30 ; Filament gcode LA 1.0
M107
;LAYER_CHANGE
;Z:0.2
;HEIGHT:0.2
G1 E-.8 F2100
G1 Z.6 F720
G1 X80.015 Y63.693 F10800
G1 Z.2 F720
G1 E.8 F2100
M204 S800
;TYPE:Skirt/Brim
;WIDTH:0.42
G1 F1200
G1 X81.06 Y62.817 E.04275
G1 X81.892 Y62.625 E.02677
G1 X125.892 Y60.625 E1.38101
G1 X168 Y60.623 E1.32027
G1 X169.307 Y61.015 E.04278
G1 X170.183 Y62.06 E.04275
G1 X170.377 Y63 E.03009
G1 X170.377 Y105 E1.31688
G1 X169.565 Y106.789 E.0616
G1 X121.565 Y148.789 E1.9998
G1 X120 Y149.377 E.05242
M73 P0 R46
G1 X82 Y149.377 E1.19146
G1 X80.693 Y148.985 E.04278
G1 X79.817 Y147.94 E.04275
G1 X79.623 Y147 E.03009
G1 X79.623 Y65 E2.57105
G1 X79.997 Y63.75 E.04091
M204 S1000
;WIPE_START
G1 F8640
G1 X80.015 Y63.693 E-.0138
G1 X81.06 Y62.817 E-.31486
G1 X81.892 Y62.625 E-.19716
G1 X83.078 Y62.571 E-.27418
;WIPE_END
G1 Z.6 F720
; printing object camara_mount_versie_1_v9 v4_1 id:0 copy 0
G1 X126.787 Y63.787 F10800
G1 Z.2 F720
G1 E.8 F2100
M204 S800
;TYPE:Perimeter
;WIDTH:0.419999
G1 F1200
G1 X167.213 Y63.787 E1.26753
G1 X167.213 Y72.199 E.26375
G1 X167.213 Y104.213 E1.00377
G1 X126.787 Y104.213 E1.26753
G1 X126.787 Y63.847 E1.26565
M73 P1 R46
M73 Q1 S47
M204 S1000
G1 X126.41 Y63.41 F10800
M204 S800
;TYPE:External perimeter
G1 F1200
G1 X167.59 Y63.41 E1.29117
G1 X167.59 Y72.199 E.27557
G1 X167.59 Y104.59 E1.0156
G1 X126.41 Y104.59 E1.29117
G1 X126.41 Y63.47 E1.28929
M204 S1000
;WIPE_START
G1 F8640
G1 X126.41 Y63.41 E-.01385
G1 X129.815 Y63.41 E-.78615
;WIPE_END
G1 Z.6 F720
G1 X155.273 Y84.433 F10800
G1 Z.2 F720
G1 E.8 F2100
M204 S800
;TYPE:Perimeter
G1 F1200
G1 X155.192 Y85.246 E.02562
G1 X155.021 Y86.082 E.02675
G1 X154.764 Y86.896 E.02676
G1 X154.425 Y87.679 E.02675
G1 X153.968 Y88.484 E.02902
G1 X153.252 Y89.437 E.03737
G1 X152.778 Y89.931 E.02147
G1 X151.997 Y90.61 E.03245
G1 X151.291 Y91.089 E.02675
G1 X150.539 Y91.493 E.02677
G1 X149.75 Y91.817 E.02674
G1 X148.932 Y92.058 E.02674
G1 X148.093 Y92.214 E.02676
G1 X147.242 Y92.283 E.02677
G1 X146.39 Y92.264 E.02672
G1 X145.543 Y92.157 E.02677
G1 X144.712 Y91.964 E.02675
G1 X143.905 Y91.687 E.02675
G1 X143.131 Y91.328 E.02675
G1 X142.338 Y90.85 E.02903
G1 X141.404 Y90.11 E.03736
G1 X140.795 Y89.492 E.0272
G1 X140.263 Y88.825 E.02675
G1 X139.803 Y88.107 E.02674
G1 X139.419 Y87.345 E.02675
G1 X139.115 Y86.548 E.02675
G1 X138.895 Y85.723 E.02677
G1 X138.76 Y84.881 E.02674
G1 X138.723 Y83.617 E.03965
G1 X138.808 Y82.754 E.02719
G1 X138.979 Y81.918 E.02675
G1 X139.236 Y81.104 E.02676
G1 X139.575 Y80.321 E.02675
G1 X139.992 Y79.577 E.02674
G1 X140.484 Y78.88 E.02675
G1 X141.045 Y78.237 E.02676
G1 X141.669 Y77.656 E.02673
G1 X142.35 Y77.141 E.02677
G1 X143.08 Y76.699 E.02676
G1 X143.851 Y76.335 E.02673
G1 X144.656 Y76.052 E.02675
G1 X145.558 Y75.841 E.02905
G1 X146.743 Y75.718 E.03735
G1 X147.61 Y75.736 E.02719
G1 X148.457 Y75.843 E.02677
G1 X149.288 Y76.036 E.02675
G1 X150.095 Y76.313 E.02675
G1 X150.869 Y76.672 E.02675
G1 X151.662 Y77.15 E.02903
G1 X152.596 Y77.89 E.03736
G1 X153.205 Y78.508 E.0272
G1 X153.778 Y79.235 E.02902
G1 X154.392 Y80.257 E.03738
G1 X154.743 Y81.05 E.02719
G1 X155.006 Y81.862 E.02676
G1 X155.183 Y82.696 E.02673
G1 X155.274 Y83.544 E.02674
G1 X155.277 Y84.374 E.02602
M204 S1000
G1 X155.277 Y84.374 F10800
G1 X154.9 Y84.397
M204 S800
;TYPE:External perimeter
G1 F1200
G1 X154.817 Y85.208 E.02556
G1 X154.652 Y86.005 E.02552
G1 X154.405 Y86.781 E.02553
G1 X154.08 Y87.528 E.02554
G1 X153.666 Y88.257 E.02629
G1 X152.951 Y89.211 E.03738
G1 X152.508 Y89.668 E.01996
G1 X151.755 Y90.321 E.03125
G1 X151.08 Y90.776 E.02552
G1 X150.362 Y91.16 E.02553
G1 X149.608 Y91.468 E.02554
G1 X148.826 Y91.696 E.02554
G1 X148.025 Y91.843 E.02553
G1 X147.213 Y91.907 E.02554
G1 X146.399 Y91.887 E.02553
G1 X145.591 Y91.783 E.02554
G1 X144.799 Y91.597 E.02551
G1 X144.029 Y91.331 E.02554
G1 X143.291 Y90.986 E.02554
G1 X142.572 Y90.554 E.0263
G1 X141.638 Y89.814 E.03736
G1 X141.065 Y89.229 E.02568
G1 X140.559 Y88.591 E.02553
G1 X140.121 Y87.904 E.02555
G1 X139.756 Y87.176 E.02553
G1 X139.468 Y86.415 E.02551
G1 X139.259 Y85.627 E.02556
G1 X139.133 Y84.823 E.02552
G1 X139.1 Y83.607 E.03814
G1 X139.183 Y82.792 E.02569
G1 X139.348 Y81.995 E.02552
G1 X139.595 Y81.219 E.02553
G1 X139.92 Y80.472 E.02554
G1 X140.321 Y79.763 E.02554
G1 X140.792 Y79.099 E.02553
G1 X141.329 Y78.486 E.02555
G1 X141.926 Y77.932 E.02554
G1 X142.576 Y77.443 E.0255
G1 X143.274 Y77.023 E.02554
G1 X144.011 Y76.677 E.02553
G1 X144.78 Y76.408 E.02554
G1 X145.596 Y76.216 E.02628
G1 X146.782 Y76.093 E.03739
G1 X147.601 Y76.113 E.02569
G1 X148.409 Y76.217 E.02554
G1 X149.201 Y76.403 E.02551
G1 X149.971 Y76.669 E.02554
G1 X150.709 Y77.014 E.02554
G1 X151.428 Y77.446 E.0263
G1 X152.362 Y78.186 E.03736
G1 X152.935 Y78.771 E.02568
G1 X153.455 Y79.429 E.0263
G1 X154.069 Y80.451 E.03738
G1 X154.398 Y81.201 E.02568
G1 X154.647 Y81.976 E.02552
G1 X154.814 Y82.773 E.02553
G1 X154.899 Y83.583 E.02554
G1 X154.9 Y84.337 E.02364
M204 S1000
;WIPE_START
G1 F8640
G1 X154.9 Y84.397 E-.01385
G1 X154.817 Y85.208 E-.18824
G1 X154.652 Y86.005 E-.18793
G1 X154.405 Y86.781 E-.18804
G1 X154.08 Y87.528 E-.1881
G1 X154.008 Y87.655 E-.03384
;WIPE_END
G1 Z.6 F720
G1 X167.043 Y64.722 F10800
G1 Z.2 F720
G1 E.8 F2100
M204 S800
;TYPE:Solid infill
;WIDTH:0.421214
G1 F1200
G1 X166.448 Y64.126 E.02649
G1 X165.913 Y64.126 E.01683
G1 X166.874 Y65.087 E.04275
G1 X166.874 Y65.622 E.01683
G1 X165.378 Y64.126 E.06655
G1 X164.843 Y64.126 E.01683
G1 X166.874 Y66.157 E.09035
G1 X166.874 Y66.692 E.01683
G1 X164.308 Y64.126 E.11415
G1 X163.773 Y64.126 E.01683
G1 X166.874 Y67.227 E.13795
G1 X166.874 Y67.762 E.01683
G1 X163.238 Y64.126 E.16175
G1 X162.703 Y64.126 E.01683
G1 X166.874 Y68.297 E.18554
G1 X166.874 Y68.832 E.01683
G1 X162.168 Y64.126 E.20934
G1 X161.633 Y64.126 E.01683
G1 X166.874 Y69.367 E.23314
G1 X166.874 Y69.902 E.01683
G1 X161.098 Y64.126 E.25694
G1 X160.563 Y64.126 E.01683
G1 X166.874 Y70.437 E.28074
G1 X166.874 Y70.972 E.01683
G1 X160.028 Y64.126 E.30454
G1 X159.493 Y64.126 E.01683
G1 X166.874 Y71.507 E.32834
G1 X166.874 Y72.042 E.01683
G1 X158.958 Y64.126 E.35214
G1 X158.423 Y64.126 E.01683
G1 X166.874 Y72.577 E.37594
G1 X166.874 Y73.112 E.01683
G1 X157.888 Y64.126 E.39974
G1 X157.353 Y64.126 E.01683
G1 X166.874 Y73.647 E.42354
G1 X166.874 Y74.182 E.01683
G1 X156.818 Y64.126 E.44734
G1 X156.283 Y64.126 E.01683
G1 X166.874 Y74.717 E.47114
G1 X166.874 Y75.252 E.01683
G1 X155.748 Y64.126 E.49493
G1 X155.213 Y64.126 E.01683
G1 X166.874 Y75.787 E.51873
G1 X166.874 Y76.322 E.01683
M73 P2 R46
G1 X154.678 Y64.126 E.54253
G1 X154.143 Y64.126 E.01683
M73 Q2 S47
G1 X166.874 Y76.857 E.56633
G1 X166.874 Y77.392 E.01683
G1 X153.608 Y64.126 E.59013
G1 X153.073 Y64.126 E.01683
G1 X166.874 Y77.927 E.61393
G1 X166.874 Y78.462 E.01683
M73 Q2 S46
G1 X152.538 Y64.126 E.63773
G1 X152.003 Y64.126 E.01683
G1 X166.874 Y78.997 E.66153
G1 X166.874 Y79.532 E.01683
G1 X151.468 Y64.126 E.68533
G1 X150.933 Y64.126 E.01683
G1 X166.874 Y80.067 E.70913
G1 X166.874 Y80.602 E.01683
G1 X150.398 Y64.126 E.73293
G1 X149.863 Y64.126 E.01683
G1 X166.874 Y81.137 E.75673
G1 X166.874 Y81.672 E.01683
G1 X149.328 Y64.126 E.78052
G1 X148.793 Y64.126 E.01683
G1 X166.874 Y82.207 E.80432
G1 X166.874 Y82.742 E.01683
G1 X148.258 Y64.126 E.82812
G1 X147.723 Y64.126 E.01683
G1 X166.874 Y83.277 E.85192
G1 X166.874 Y83.812 E.01683
G1 X147.188 Y64.126 E.87572
G1 X146.654 Y64.126 E.0168
G1 X166.874 Y84.347 E.8995
G1 X166.874 Y84.881 E.0168
M73 P2 R45
G1 X146.119 Y64.126 E.92328
G1 X145.584 Y64.126 E.01683
G1 X166.874 Y85.416 E.94707
G1 X166.874 Y85.951 E.01683
G1 X145.049 Y64.126 E.97087
G1 X144.514 Y64.126 E.01683
G1 X166.874 Y86.486 E.99467
G1 X166.874 Y87.021 E.01683
G1 X143.979 Y64.126 E1.01847
G1 X143.444 Y64.126 E.01683
G1 X166.874 Y87.556 E1.04227
G1 X166.874 Y88.091 E.01683
M73 P3 R45
G1 X142.909 Y64.126 E1.06607
G1 X142.374 Y64.126 E.01683
M73 Q3 S46
G1 X166.874 Y88.626 E1.08987
G1 X166.874 Y89.161 E.01683
G1 X141.839 Y64.126 E1.11367
G1 X141.304 Y64.126 E.01683
G1 X166.874 Y89.696 E1.13747
G1 X166.874 Y90.231 E.01683
G1 X140.769 Y64.126 E1.16127
G1 X140.234 Y64.126 E.01683
G1 X166.874 Y90.766 E1.18507
G1 X166.874 Y91.301 E.01683
G1 X139.699 Y64.126 E1.20887
G1 X139.164 Y64.126 E.01683
G1 X166.874 Y91.836 E1.23266
G1 X166.874 Y92.371 E.01683
G1 X154.773 Y80.271 E.53828
G1 X155.085 Y80.994 E.02477
G1 X155.142 Y81.175 E.00597
G1 X166.874 Y92.906 E.52187
G1 X166.874 Y93.441 E.01683
G1 X155.371 Y81.939 E.51168
G1 X155.509 Y82.611 E.02158
G1 X166.874 Y93.976 E.50557
G1 X166.874 Y94.511 E.01683
G1 X155.579 Y83.217 E.50243
G1 X155.616 Y83.595 E.01195
G1 X155.615 Y83.788 E.00607
G1 X166.874 Y95.046 E.50083
G1 X166.874 Y95.581 E.01683
G1 X155.613 Y84.321 E.50092
G1 X155.577 Y84.819 E.01571
G1 X166.874 Y96.116 E.50254
G1 X166.874 Y96.651 E.01683
G1 X155.526 Y85.303 E.50481
G1 X155.437 Y85.749 E.01431
G1 X166.874 Y97.186 E.50877
G1 X166.874 Y97.721 E.01683
G1 X155.342 Y86.189 E.51299
G1 X155.214 Y86.596 E.01342
G1 X166.874 Y98.256 E.51869
G1 X166.874 Y98.791 E.01683
G1 X155.086 Y87.004 E.52436
G1 X154.925 Y87.377 E.01278
G1 X166.874 Y99.326 E.53154
G1 X166.874 Y99.861 E.01683
G1 X154.764 Y87.751 E.53871
G1 X154.577 Y88.1 E.01245
M73 P4 R45
G1 X166.874 Y100.396 E.547
G1 X166.874 Y100.931 E.01683
G1 X154.385 Y88.443 E.55554
G1 X154.298 Y88.598 E.00559
M73 Q4 S46
G1 X154.173 Y88.765 E.00656
G1 X166.874 Y101.466 E.565
G1 X166.874 Y102.001 E.01683
G1 X153.943 Y89.071 E.57521
G1 X153.714 Y89.377 E.01202
G1 X166.874 Y102.536 E.58539
G1 X166.874 Y103.071 E.01683
G1 X153.485 Y89.682 E.5956
G1 X153.224 Y89.957 E.01193
G1 X166.874 Y103.606 E.60719
G1 X166.874 Y103.874 E.00843
M73 Q4 S45
G1 X166.606 Y103.874 E.00843
G1 X152.959 Y90.226 E.6071
G1 X152.679 Y90.482 E.01193
G1 X166.071 Y103.874 E.59574
G1 X165.536 Y103.874 E.01683
G1 X152.386 Y90.724 E.58497
G1 X152.089 Y90.961 E.01195
G1 X165.001 Y103.874 E.57441
G1 X164.466 Y103.874 E.01683
G1 X151.767 Y91.175 E.56491
G1 X151.446 Y91.389 E.01214
G1 X163.931 Y103.874 E.55539
G1 X163.396 Y103.874 E.01683
G1 X151.1 Y91.577 E.547
G1 X150.749 Y91.762 E.01248
G1 X162.861 Y103.874 E.5388
G1 X162.326 Y103.874 E.01683
G1 X150.379 Y91.926 E.53148
G1 X149.997 Y92.079 E.01294
G1 X161.791 Y103.874 E.52467
G1 X161.256 Y103.874 E.01683
G1 X149.599 Y92.216 E.51858
G1 X149.183 Y92.335 E.01361
G1 X160.721 Y103.874 E.51328
G1 X160.186 Y103.874 E.01683
G1 X148.752 Y92.439 E.50866
G1 X148.299 Y92.521 E.01448
G1 X159.651 Y103.874 E.50501
G1 X159.116 Y103.874 E.01683
G1 X147.818 Y92.576 E.50259
G1 X147.322 Y92.615 E.01565
G1 X158.581 Y103.874 E.50085
G1 X158.046 Y103.874 E.01683
G1 X146.786 Y92.614 E.5009
G1 X146.222 Y92.584 E.01777
G1 X157.511 Y103.874 E.50221
G1 X156.976 Y103.874 E.01683
M73 P4 R44
G1 X145.61 Y92.508 E.50561
G1 X144.931 Y92.363 E.02184
G1 X156.441 Y103.874 E.51204
G1 X155.906 Y103.874 E.01683
G1 X144.169 Y92.136 E.52214
G1 X143.787 Y92.005 E.0127
G1 X143.258 Y91.761 E.01832
G1 X155.541 Y104.043 E.54638
M204 S1000
;WIPE_START
G1 F8640
G1 X153.091 Y101.593 E-.8
;WIPE_END
G1 Z.6 F720
G1 X151.138 Y76.636 F10800
G1 Z.2 F720
G1 E.8 F2100
M204 S800
G1 F1200
G1 X138.629 Y64.126 E.55648
G1 X138.094 Y64.126 E.01683
G1 X149.831 Y75.864 E.52214
G1 X149.373 Y75.707 E.01523
M73 P5 R44
G1 X149.069 Y75.637 E.00981
G1 X137.559 Y64.126 E.51204
G1 X137.024 Y64.126 E.01683
G1 X148.389 Y75.492 E.50559
G1 X147.778 Y75.416 E.01937
M73 Q5 S45
G1 X136.489 Y64.126 E.50221
G1 X135.954 Y64.126 E.01683
G1 X147.217 Y75.389 E.50103
G1 X146.677 Y75.384 E.01699
G1 X135.419 Y64.126 E.50081
G1 X134.884 Y64.126 E.01683
G1 X146.194 Y75.437 E.50314
G1 X145.711 Y75.489 E.01528
G1 X134.349 Y64.126 E.50545
G1 X133.814 Y64.126 E.01683
G1 X145.248 Y75.561 E.50866
G1 X144.817 Y75.665 E.01395
G1 X133.279 Y64.126 E.51328
G1 X132.744 Y64.126 E.01683
G1 X144.4 Y75.782 E.51851
G1 X144.004 Y75.922 E.01321
G1 X132.209 Y64.126 E.52472
G1 X131.674 Y64.126 E.01683
G1 X143.618 Y76.07 E.53132
G1 X143.255 Y76.242 E.01264
G1 X131.139 Y64.126 E.53897
G1 X130.604 Y64.126 E.01683
G1 X142.893 Y76.416 E.54669
G1 X142.56 Y76.618 E.01225
G1 X130.069 Y64.126 E.55568
G1 X129.534 Y64.126 E.01683
G1 X142.227 Y76.82 E.56466
G1 X141.916 Y77.044 E.01206
G1 X128.999 Y64.126 E.57463
G1 X128.464 Y64.126 E.01683
G1 X141.612 Y77.275 E.5849
G1 X141.32 Y77.518 E.01195
G1 X127.929 Y64.126 E.59571
G1 X127.394 Y64.126 E.01683
G1 X141.043 Y77.776 E.60719
G1 X140.77 Y78.037 E.01188
G1 X127.126 Y64.394 E.60692
G1 X127.126 Y64.929 E.01683
G1 X140.521 Y78.323 E.59585
G1 X140.272 Y78.609 E.01193
G1 X127.126 Y65.464 E.58477
G1 X127.126 Y65.999 E.01683
G1 X140.044 Y78.916 E.57463
G1 X139.823 Y79.23 E.01208
G1 X127.126 Y66.534 E.5648
G1 X127.126 Y67.069 E.01683
G1 X139.615 Y79.557 E.55554
G1 X139.423 Y79.9 E.01236
G1 X127.126 Y67.604 E.547
G1 X127.126 Y68.139 E.01683
G1 X139.236 Y80.249 E.53871
G1 X139.075 Y80.623 E.01281
G1 X127.126 Y68.674 E.53154
G1 X127.126 Y69.209 E.01683
G1 X138.914 Y80.997 E.52438
G1 X138.786 Y81.404 E.01342
G1 X127.126 Y69.744 E.51869
G1 X127.126 Y70.279 E.01683
G1 X138.658 Y81.811 E.51299
G1 X138.565 Y82.252 E.01418
M73 P6 R44
G1 X127.126 Y70.814 E.50884
G1 X127.126 Y71.349 E.01683
G1 X138.474 Y82.696 E.50479
G1 X138.424 Y83.182 E.01537
M73 Q6 S45
G1 X127.126 Y71.884 E.50259
G1 X127.126 Y72.419 E.01683
G1 X138.386 Y83.678 E.50087
G1 X138.4 Y84.227 E.01727
G1 X127.126 Y72.954 E.5015
G1 X127.126 Y73.489 E.01683
G1 X138.414 Y84.776 E.50212
G1 X138.503 Y85.4 E.01983
G1 X127.126 Y74.024 E.50608
G1 X127.126 Y74.559 E.01683
G1 X138.636 Y86.068 E.51199
G1 X138.795 Y86.661 E.01931
G1 X138.857 Y86.825 E.00551
G1 X127.126 Y75.094 E.52185
G1 X127.126 Y75.629 E.01683
G1 X139.623 Y88.125 E.5559
M204 S1000
;WIPE_START
G1 F8640
G1 X137.173 Y85.675 E-.8
;WIPE_END
G1 Z.6 F720
G1 X126.957 Y75.994 F10800
G1 Z.2 F720
G1 E.8 F2100
M204 S800
G1 F1200
G1 X154.836 Y103.874 E1.2402
G1 X154.301 Y103.874 E.01683
M73 Q6 S44
G1 X127.126 Y76.699 E1.20887
G1 X127.126 Y77.234 E.01683
G1 X153.766 Y103.874 E1.18507
G1 X153.231 Y103.874 E.01683
